resources/svg/reddit.svg

<svg xmlns="http://www.w3.org/2000/svg" viewBox="0 0 24 24" fill="currentColor"><path fill="currentColor" fill-rule="evenodd" d="M15.57,15.284 C14.673,15.284 13.91925,14.5565 13.91925,13.6595 C13.91925,12.7625 14.673,12.011 15.57,12.011 C16.467,12.011 17.1945,12.7625 17.1945,13.6595 C17.1945,14.5565 16.467,15.284 15.57,15.284 M15.951,18.437 C15.1155,19.27175 13.827,19.6775 12.012,19.6775 C12.00825,19.6775 12.00375,19.67675 11.99925,19.67675 C11.9955,19.67675 11.991,19.6775 11.9865,19.6775 C10.1715,19.6775 8.88375,19.27175 8.049,18.437 C7.7925,18.1805 7.7925,17.76575 8.049,17.51 C8.30475,17.25425 8.7195,17.25425 8.976,17.51 C9.552,18.086 10.53675,18.3665 11.9865,18.3665 C11.991,18.3665 11.9955,18.36725 11.99925,18.36725 C12.00375,18.36725 12.00825,18.3665 12.012,18.3665 C13.46175,18.3665 14.44725,18.086 15.024,17.51 C15.2805,17.2535 15.69525,17.25425 15.951,17.51 C16.20675,17.7665 16.20675,18.18125 15.951,18.437 M6.8055,13.6595 C6.8055,12.76325 7.55775,12.011 8.454,12.011 C9.351,12.011 10.0785,12.76325 10.0785,13.6595 C10.0785,14.5565 9.351,15.284 8.454,15.284 C7.55775,15.284 6.8055,14.5565 6.8055,13.6595 M19.998,3.311 C20.6055,3.311 21.09975,3.80525 21.09975,4.412 C21.09975,5.0195 20.6055,5.51375 19.998,5.51375 C19.3905,5.51375 18.89625,5.0195 18.89625,4.412 C18.89625,3.80525 19.3905,3.311 19.998,3.311 M24,11.87525 C24,10.2845 22.70625,8.99075 21.1155,8.99075 C20.427,8.99075 19.79475,9.23375 19.29825,9.638 C17.5395,8.5325 15.3075,7.8665 12.915,7.7255 L14.163,3.77975 L17.59275,4.5875 C17.68275,5.83625 18.72675,6.82475 19.998,6.82475 C21.32775,6.82475 22.41,5.7425 22.41,4.412 C22.41,3.08225 21.32775,2 19.998,2 C19.068,2 18.2595,2.5295 17.85675,3.30275 L13.87125,2.3645 C13.5375,2.28575 13.2,2.47775 13.0965,2.80475 L11.547,7.70225 C8.96925,7.76525 6.546,8.4335 4.65825,9.6035 C4.1685,9.22025 3.55275,8.99075 2.8845,8.99075 C1.29375,8.99075 0,10.2845 0,11.87525 C0,12.8585 0.495,13.72775 1.24875,14.24825 C1.21725,14.477 1.20075,14.70725 1.20075,14.9405 C1.20075,16.92875 2.3565,18.77825 4.455,20.14775 C6.4665,21.461 9.129,22.184 11.95125,22.184 C14.7735,22.184 17.436,21.461 19.4475,20.14775 C21.546,18.77825 22.70175,16.92875 22.70175,14.9405 C22.70175,14.72825 22.6875,14.5175 22.66125,14.30825 C23.46525,13.796 24,12.89675 24,11.87525"/></svg>

<svg viewBox="0 0 24 24"><path fill="currentColor" fill-rule="evenodd" d="M15.57 15.284c-.897 0-1.65-.728-1.65-1.625s.753-1.648 1.65-1.648c.897 0 1.625.752 1.625 1.649c0 .896-.728 1.624-1.625 1.624m.381 3.153c-.835.835-2.124 1.24-3.939 1.24h-.026c-1.815 0-3.102-.405-3.937-1.24a.655.655 0 1 1 .927-.927c.576.576 1.56.856 3.01.856l.013.001h.013c1.45 0 2.435-.281 3.012-.857a.655.655 0 1 1 .927.927m-9.146-4.778c0-.896.753-1.648 1.649-1.648c.897 0 1.624.752 1.624 1.649c0 .896-.727 1.624-1.624 1.624c-.896 0-1.649-.728-1.649-1.625M19.998 3.311c.607 0 1.102.494 1.102 1.101s-.495 1.102-1.102 1.102a1.103 1.103 0 0 1-1.102-1.102c0-.607.494-1.101 1.102-1.101M24 11.875a2.887 2.887 0 0 0-2.884-2.884c-.689 0-1.321.243-1.818.647c-1.758-1.105-3.99-1.771-6.383-1.912l1.248-3.946l3.43.808a2.415 2.415 0 0 0 2.405 2.237a2.415 2.415 0 0 0 2.412-2.413A2.415 2.415 0 0 0 19.998 2c-.93 0-1.739.53-2.141 1.303l-3.986-.938a.655.655 0 0 0-.774.44l-1.55 4.897c-2.578.063-5.001.732-6.889 1.902a2.87 2.87 0 0 0-1.774-.613A2.887 2.887 0 0 0 0 11.875a2.88 2.88 0 0 0 1.249 2.373a5.063 5.063 0 0 0-.048.693c0 1.988 1.155 3.837 3.254 5.207c2.011 1.313 4.674 2.036 7.496 2.036s5.485-.723 7.497-2.036c2.098-1.37 3.254-3.22 3.254-5.207c0-.213-.015-.424-.04-.633A2.884 2.884 0 0 0 24 11.875"/></svg>
